public/img/decorations/deco-ring-5.svg

<svg width="110" height="87" viewBox="0 0 110 87" fill="none" xmlns="http://www.w3.org/2000/svg">
<path d="M18.0448 0.875C19.0918 1.122 20.5118 1.37501 21.8788 1.79501C25.6448 2.94901 29.1758 4.64099 32.5838 6.59799C33.0678 6.87699 33.5288 7.209 34.0368 7.439C36.0938 8.37 37.9078 9.667 39.7088 11.008C41.3748 12.249 43.1128 13.393 44.8238 14.574C46.4668 15.708 48.1358 16.805 49.7558 17.971C54.9528 21.714 60.3518 25.104 66.0978 27.968C70.6018 30.213 75.0798 32.532 79.2348 35.416C81.4518 36.954 83.3088 38.757 84.3558 41.296C84.5398 41.739 84.7938 42.151 84.9848 42.591C86.4258 45.891 88.7098 48.449 91.4708 50.766C93.9588 52.856 96.4568 54.963 98.5778 57.518C100.613 59.971 102.75 62.35 104.781 64.818C107.013 67.532 108.336 70.684 109.361 73.975C110.144 76.486 109.681 78.862 108.215 81.043C107.725 81.773 107.252 82.514 106.776 83.254C106.518 83.658 106.286 84.08 106.018 84.477C104.911 86.127 103.356 86.704 101.44 86.293C100.661 86.125 99.8948 85.882 99.1388 85.623C94.7838 84.13 90.8788 81.813 87.2758 78.986C83.7488 76.216 80.0568 73.688 76.2548 71.324C72.8618 69.215 69.4388 67.155 66.0278 65.074C65.8908 64.991 65.7617 64.894 65.6178 64.826C61.8598 63.053 58.1378 61.195 54.1768 59.896C51.9678 59.171 49.8698 58.241 47.7958 57.173C44.6008 55.529 41.5378 53.635 38.2138 52.22C36.2428 51.382 34.4738 50.077 32.5888 49.03C30.9848 48.138 29.3158 47.363 27.7278 46.445C25.4468 45.129 23.0928 43.891 20.9838 42.331C16.6788 39.147 12.4698 35.818 8.88177 31.803C7.12177 29.833 5.77278 27.557 4.32478 25.355C2.10178 21.971 1.41678 18.133 0.947779 14.229C0.881779 13.69 1.00978 13.116 1.11578 12.571C1.26778 11.787 1.50478 11.019 1.66478 10.235C2.51878 6.02599 5.3428 3.612 9.1568 2.233C10.5628 1.724 12.1138 1.59299 13.6118 1.36499C14.9508 1.16299 16.3088 1.063 18.0448 0.875ZM16.2088 2.89099C13.7888 2.62899 11.4568 3.13901 9.16379 3.90201C7.36879 4.50001 5.94078 5.552 4.81378 7.112C2.41578 10.431 2.29278 14.167 2.97578 17.916C3.58078 21.243 5.10279 24.347 7.12979 27.017C10.0168 30.823 13.0278 34.586 17.1008 37.281C17.4968 37.543 17.7998 37.939 18.1808 38.228C20.5928 40.061 22.8158 42.152 25.5418 43.555C28.0988 44.87 30.6768 46.153 33.1528 47.607C36.0488 49.309 38.9988 50.889 42.0528 52.286C43.0688 52.749 44.0098 53.369 44.9918 53.904C47.0248 55.012 49.0538 56.132 51.1068 57.204C51.6678 57.498 52.3058 57.645 52.9078 57.86C54.9348 58.585 57.0118 59.199 58.9778 60.062C61.7548 61.28 64.4508 62.678 67.1768 64.008C67.4618 64.148 67.7118 64.356 67.9818 64.528C70.3358 66.029 72.6888 67.532 75.0458 69.03C79.6338 71.947 84.2158 74.895 88.4068 78.352C92.0608 81.368 96.2858 83.172 100.567 84.952C101.719 85.431 102.784 85.223 103.688 84.407C104.458 83.713 105.194 82.971 105.876 82.19C107.19 80.684 107.81 78.913 107.794 76.903C107.771 73.934 106.745 71.231 105.347 68.719C104.347 66.921 102.964 65.322 101.654 63.714C99.9898 61.674 98.2318 59.709 96.4998 57.725C96.0818 57.246 95.6408 56.775 95.1498 56.373C93.1128 54.7 91.0148 53.1 89.0108 51.389C86.5678 49.303 84.2838 47.069 83.1908 43.911C82.9568 43.236 82.5478 42.624 82.2568 41.967C81.3568 39.939 79.9028 38.389 78.1848 37.023C74.5348 34.118 70.4148 31.987 66.3508 29.764C62.5658 27.694 58.7098 25.747 55.1518 23.284C52.9838 21.784 50.7668 20.359 48.5698 18.904C46.3098 17.406 44.0408 15.925 41.7908 14.415C38.2808 12.061 35.0348 9.29201 31.0758 7.65201C31.0038 7.62201 30.9368 7.573 30.8668 7.534C28.3708 6.088 25.7168 4.993 23.0308 3.957C20.8398 3.108 18.5938 2.62699 16.2088 2.89099Z" fill="black"/>
</svg>

<svg width="110" height="87" fill="none" xmlns="http://www.w3.org/2000/svg"><path d="M18.045.875c1.047.247 2.467.5 3.834.92 3.766 1.154 7.297 2.846 10.705 4.803.484.279.945.611 1.453.841 2.057.931 3.87 2.228 5.672 3.569 1.666 1.241 3.404 2.385 5.115 3.566 1.643 1.134 3.312 2.231 4.932 3.397 5.197 3.743 10.596 7.133 16.342 9.997 4.504 2.245 8.982 4.564 13.137 7.448 2.217 1.538 4.074 3.341 5.12 5.88.185.443.439.855.63 1.295 1.44 3.3 3.725 5.858 6.486 8.175 2.488 2.09 4.986 4.197 7.107 6.752 2.035 2.453 4.172 4.832 6.203 7.3 2.232 2.714 3.555 5.866 4.58 9.157.783 2.511.32 4.887-1.146 7.068-.49.73-.963 1.471-1.439 2.211-.258.404-.49.826-.758 1.223-1.107 1.65-2.662 2.227-4.578 1.816-.779-.168-1.545-.411-2.301-.67-4.355-1.493-8.26-3.81-11.863-6.637-3.527-2.77-7.22-5.298-11.021-7.662-3.393-2.109-6.816-4.169-10.227-6.25-.137-.083-.266-.18-.41-.248-3.758-1.773-7.48-3.631-11.441-4.93-2.21-.725-4.307-1.655-6.381-2.723-3.195-1.644-6.258-3.538-9.582-4.953-1.971-.838-3.74-2.143-5.625-3.19-1.604-.892-3.273-1.667-4.861-2.585-2.281-1.316-4.635-2.554-6.744-4.114-4.305-3.184-8.514-6.513-12.102-10.528-1.76-1.97-3.11-4.246-4.557-6.448-2.223-3.384-2.908-7.222-3.377-11.126-.066-.539.062-1.113.168-1.658.152-.784.389-1.552.549-2.336.854-4.209 3.678-6.623 7.492-8.002 1.406-.509 2.957-.64 4.455-.868 1.339-.202 2.697-.302 4.433-.49zm-1.836 2.016c-2.42-.262-4.752.248-7.045 1.011-1.795.598-3.223 1.65-4.35 3.21-2.398 3.319-2.521 7.055-1.838 10.804.605 3.327 2.127 6.431 4.154 9.101 2.887 3.806 5.898 7.569 9.97 10.264.397.262.7.658 1.08.947 2.413 1.833 4.636 3.924 7.362 5.327 2.557 1.315 5.135 2.598 7.61 4.052 2.897 1.702 5.847 3.282 8.9 4.679 1.017.463 1.958 1.083 2.94 1.618 2.033 1.108 4.062 2.228 6.115 3.3.56.294 1.199.441 1.8.656 2.028.725 4.105 1.339 6.07 2.202 2.778 1.218 5.474 2.616 8.2 3.946.285.14.535.348.805.52 2.354 1.501 4.707 3.004 7.064 4.502 4.588 2.917 9.17 5.865 13.36 9.322 3.655 3.016 7.88 4.82 12.161 6.6 1.152.479 2.217.271 3.121-.545a26.159 26.159 0 002.188-2.217c1.314-1.506 1.934-3.277 1.918-5.287-.023-2.969-1.049-5.672-2.447-8.184-1-1.798-2.383-3.397-3.693-5.005-1.664-2.04-3.422-4.005-5.154-5.989-.418-.479-.86-.95-1.35-1.352-2.037-1.673-4.135-3.273-6.14-4.984-2.442-2.086-4.726-4.32-5.82-7.478-.233-.675-.642-1.287-.933-1.944-.9-2.028-2.354-3.578-4.072-4.944-3.65-2.905-7.77-5.036-11.834-7.259-3.785-2.07-7.641-4.017-11.2-6.48-2.167-1.5-4.384-2.925-6.581-4.38-2.26-1.498-4.53-2.979-6.78-4.489-3.51-2.354-6.755-5.123-10.714-6.763-.072-.03-.14-.079-.21-.118-2.495-1.446-5.15-2.541-7.835-3.577-2.191-.849-4.437-1.33-6.822-1.066z" fill="#000"/></svg>
